!!!COM:	Bach, Johann Sebastian
!!!CDT:	1685/02/21/-1750/07/28/
!!!OTL@@DE:	Singen wir aus Herzensgrund
!!!SCT:	BWV 187/7
!!!PC#:	109
!!!AGN:	chorale
**kern	**kern	**kern	**kern
*ICvox	*ICvox	*ICvox	*ICvox
*Ibass	*Itenor	*Ialto	*Isoprn
*I"Bass	*I"Tenor	*I"Alto	*I"Soprano
*clefF4	*clefGv2	*clefG2	*clefG2
*k[b-e-]	*k[b-e-]	*k[b-e-]	*k[b-e-]
*g:	*g:	*g:	*g:
*M3/4	*M3/4	*M3/4	*M3/4
*MM100	*MM100	*MM100	*MM100
=1-	=1-	=1-	=1-
8GL	8B-L	4d	4g
8AJ	8cJ	.	.
8B-L	4d	8gL	8gL
8AJ	.	8f#J	8aJ
4G	4d	4g	4b-
=2	=2	=2	=2
4C	4e-	4g	2a
4D	8dL	4f#	.
.	8cJ	.	.
4E-	4B-	4g	4g
=3	=3	=3	=3
4AA	4A	4c	8f#L
.	.	.	8gJ
4BB-	8GL	4d	4.g
.	8AJ	.	.
4GG	4B-	4c#	.
.	.	.	16f#LL
.	.	.	16gJJ
=4	=4	=4	=4
2.D;	2.F#;	2.d;	2.a;
=5	=5	=5	=5
4D	2d	4f#	8aL
.	.	.	8b-J
4G	.	2g	4.b-
4FnX	4d	.	.
.	.	.	16aLL
.	.	.	16b-JJ
=6	=6	=6	=6
4E	8cL	4g	2cc
.	8B-	.	.
4F#	8A	4a	.
.	8GJ	.	.
4D	4A	4f#	4dd
=7	=7	=7	=7
4G	2G	4d	4b-
4C	.	4e-	2a
4D	4F#	4d	.
=8	=8	=8	=8
2.GG;	2.B-;	2.d;	2.g;
=9	=9	=9	=9
8DL	4d	4f	4a
8E	.	.	.
8FnX	4d	4f	4a
8EJ	.	.	.
4D	4d	4f	4b-
=10	=10	=10	=10
4A	8cL	4e	2cc
.	8B-J	.	.
4D	4A	4f	.
4E	4G	4g	4b-
=11	=11	=11	=11
4F	4A	2f	4a
4BB-	4d	.	2g
4C	4c	4e	.
=12	=12	=12	=12
2.FF;	2.A;	2.c;	2.f;
=13	=13	=13	=13
2F	4A	4a	4cc
.	4B	2g	4dd
4E	4c#	.	4ee
=14	=14	=14	=14
4D	2d	4f	4ff
8GL	.	4b-	2ee
8F	.	.	.
8G	4c#	4a	.
8AJ	.	.	.
=15	=15	=15	=15
4B-	4d	4f	2dd
4G	2e	4b-	.
4A	.	4a	4cc#
=16	=16	=16	=16
2.D;	2.f#;	2.a;	2.dd;
=17	=17	=17	=17
8BB-L	2f	2b-	2dd
8C	.	.	.
8D	.	.	.
8CJ	.	.	.
4BB-	4f	4b-	4dd
=18	=18	=18	=18
2F	2f	8aL	8ccL
.	.	8gJ	8b-J
.	.	8fL	8aL
.	.	8gJ	8b-J
4F	4e-X	4a	4cc
=19	=19	=19	=19
4F#	2d	4a	4dd
4D	.	4f#	4cc
4G	4d	4g	4b-
=20	=20	=20	=20
2.D;	2.d;	2.f#;	2.a;
=21	=21	=21	=21
4B-	4d	4g	2dd
4F#	4c	4a	.
4G	4B-	4b-	4dd
=22	=22	=22	=22
2A	2c	4a	4cc
.	.	4g	4dd
4AA	4c	4f#	4ee-
=23	=23	=23	=23
2BB-	4B-	4g	4dd
.	4A	4f#	4cc
4C	4G	4g	4b-
=24	=24	=24	=24
2.D;	2.d;	2.f#;	2.a;
=25	=25	=25	=25
4d	2d	8f#L	8aL
.	.	8gJ	8b-J
4c	.	4.g	4.b-
4B-	4d	.	.
.	.	16f#LL	16aLL
.	.	16gJJ	16b-JJ
=26	=26	=26	=26
4A	4c	8aL	2cc
.	.	8g	.
4G	4e-	8f#	.
.	.	8gJ	.
4F#	4d	4a	4dd
=27	=27	=27	=27
4G	4d	2g	4b-
4C	4e-	.	2a
4D	8dL	4f#	.
.	8cJ	.	.
=28	=28	=28	=28
2.GG;	2.B;	2.d;	2.g;
==	==	==	==
*-	*-	*-	*-
!!!hum2abc: -Q ''
!!!title: @{PC#}. @{OTL@@DE}
!!!YOR1: 371 vierstimmige Choralges&auml;nge von Johann Sebastian Bach, 
!!!YOR2: 4th ed. by Alfred D&ouml;rffel (Leipzig: Breitkopf und H&auml;rtel, 
!!!YOR2: c.1875). 178 pp. Plate "V.A.10".  reprint: J.S. Bach, 371 Four-Part 
!!!YOR4: Chorales (New York: Associated Music Publishers, Inc., c.1940).
!!!SMS: B&H, 4th ed, Alfred D&ouml;rffel, c.1875, plate V.A.10
!!!EED:  Craig Stuart Sapp
!!!EEV:  2009/05/22
